X: 4
T: The Dairy Maids
O: Old Englsih Tune.
N: From the "Modern Music Series, Primer," copyright 1901. Used by per. of Silver, Burdett & Co.
%R: jig
B: "The Everyday Song Book", 1927
F: http://www.library.pitt.edu/happybirthday/pdf/The_Everyday_Song_Book.pdf
Z: 2015 John Chambers <jc:trillian.mit.edu>
M: 6/8
L: 1/8
K: F
% - - - - - - - - - - - - - - - - - - - - - - - - - - - - -
F2 F F G A | B2 A G3 | A3 F3 | (G2E) C3 |
w: 1.~Even-ing light on the pas-ture land, Twink-ling, twink-*ling;
w: 2.~Cow-bells ring-ing a sleep-y chime,  Twink-ling, twink-*ling;
w: 3.~Mak-ing but-ter's the best of fun,   Churn-ing,  churn-*ing;
%
F2 F F G A | B2 A G3 | c2 d A A G | F3- F2z |]
w: Down we go with our pails in hand,    Ma-ry, Mol-ly and I.*
w: While we call o'er the mead-ow thyme, Ma-ry, Mol-ly and I.*
w: Oh! we're sor-ry when sum-mer's done, Ma-ry, Mol-ly and I.*
% - - - - - - - - - - - - - - - - - - - - - - - - - - - - -

%%sep 1 1 500
%%sep 1 1 500

